svg/u1f6b2.svg

<svg viewBox="0 0 128 128" xmlns="http://www.w3.org/2000/svg">
  <polygon points="98.48,98.57 72.34,92.89 72.71,91.15 98.95,96.63 " fill="#B9BABA"/>
  <polygon points="72,108.31 71.75,106.58 99.9,100.79 100.31,102.75 " fill="#B9BABA"/>
  <path d="M70.37,91.11c-5.28-0.25-9.15,5.17-8.71,9.54c0.46,4.54,3.78,7.88,8.89,7.78 c4.82-0.09,8.15-3.43,8.24-8.52S76.2,91.39,70.37,91.11z M72.87,103.9c-2.32,1.2-5.15,0.42-6.48-2.04c-1.2-2.22,0.18-5.59,2.59-6.39 c2.22-0.74,4.48,0.19,5.65,2.04C75.92,99.54,75.37,102.6,72.87,103.9z" fill="#858587"/>
  <rect height="1" fill="#B9BABA" transform="matrix(0.2186 -0.9758 0.9758 0.2186 -5.111 169.8255)" width="17.37" x="94.8" y="87.6"/>
  <polygon points="101.39,98.43 113.14,83.67 113.92,84.29 104.74,95.84 118.51,89.65 118.92,90.56 " fill="#B9BABA"/>
  <polygon points="119.78,106.84 101.58,99.87 120.66,96.77 120.82,97.76 105.4,100.26 120.13,105.91 " fill="#B9BABA"/>
  <polygon points="99.4,96 96.36,79.57 97.35,79.42 100.39,95.85 " fill="#B9BABA"/>
  <rect height="16.93" fill="#B9BABA" transform="matrix(0.7571 -0.6533 0.6533 0.7571 -37.2969 82.3126)" width="1" x="91.54" y="82.84"/>
  <path d="M85.18,113.54l-0.6-0.8l0.3,0.4l-0.32-0.38c0.39-0.35,9.5-9.63,12.98-13.17l0.71,0.7 C94.41,104.2,85.44,113.34,85.18,113.54z" fill="#B9BABA"/>
  <rect height="18.72" fill="#B9BABA" transform="matrix(0.9908 -0.1355 0.1355 0.9908 -14.1509 14.5993)" width="1" x="99.64" y="101.86"/>
  <polygon points="92.8,119.43 91.93,118.95 101.12,102.11 115.9,113.2 115.3,114 101.44,103.61 " fill="#B9BABA"/>
  <rect height="18.3" fill="#B9BABA" transform="matrix(0.9319 -0.3628 0.3628 0.9319 -32.5981 46.0692)" width="1" x="105.85" y="100.68"/>
  <ellipse cx="100.66" cy="99.48" rx="4.08" ry="3.96" fill="#C9C8C8"/>
  <path d="M100.17,75.1C86.3,75.25,76.16,85.61,75.76,99.28c-0.39,13.1,10,24.52,23.87,24.96 c14.82,0.47,25.75-11.01,25.43-24.69C124.74,86.25,114.37,74.94,100.17,75.1z M99.66,120.56c-11.89-0.38-20.8-10.16-20.46-21.4 c0.35-11.72,9.04-20.6,20.93-20.73c12.17-0.13,21.06,9.56,21.33,20.96C121.73,111.12,112.37,120.96,99.66,120.56z" fill="#484D50"/>
  <path d="M100.28,77.9c-12.29,0.14-21.27,9.31-21.63,21.41c-0.35,11.6,8.86,21.71,21.14,22.1 c13.13,0.41,22.81-9.75,22.52-21.86C122.04,87.78,112.85,77.77,100.28,77.9z M99.71,119.6c-11.26-0.35-19.25-9.6-18.93-20.14 c0.33-11,8-19.05,19.27-19.17c11.53-0.13,20.36,8.97,20.21,19.68C120.1,110.62,111.75,119.98,99.71,119.6z" fill="#C9C9C9"/>
  <rect height="1.1" fill="#B9BABA" transform="matrix(0.213 -0.9771 0.9771 0.213 -87.1337 113.0715)" width="20.2" x="16.52" y="110.07"/>
  <rect height="1.1" fill="#B9BABA" transform="matrix(0.9335 -0.3585 0.3585 0.9335 -31.9857 20.017)" width="18.72" x="28.63" y="95.71"/>
  <polygon points="41.2,115.01 28.02,98.58 23.26,79.49 24.33,79.23 29.03,98.08 42.06,114.32 " fill="#B9BABA"/>
  <polygon points="27.01,98.57 26.06,98.14 32.3,79.81 33.35,80.14 " fill="#B9BABA"/>
  <rect height="1.1" fill="#B9BABA" transform="matrix(0.7294 -0.6841 0.6841 0.7294 -53.6359 49.2554)" width="19.86" x="25.51" y="91.87"/>
  <rect height="18.98" fill="#B9BABA" transform="matrix(0.4943 -0.8693 0.8693 0.4943 -71.8098 62.5347)" width="1.1" x="17.29" y="83.49"/>
  <polygon points="17.04,117.82 16.06,117.34 24.57,100.08 6.55,95.87 6.8,94.8 26.17,99.32 " fill="#B9BABA"/>
  <polygon points="6.83,105.25 6.53,104.19 25.96,98.66 15.8,82.46 16.73,81.87 27.67,99.31 " fill="#B9BABA"/>
  <polygon points="10.78,113.27 10.18,112.34 27.13,101.38 46.53,106.21 46.27,107.27 27.33,102.56 " fill="#B9BABA"/>
  <rect height="19.39" fill="#B9BABA" transform="matrix(0.9181 -0.3964 0.3964 0.9181 -41.4191 21.0018)" width="1.1" x="29.55" y="101.01"/>
  <rect height="17.24" fill="#B9BABA" transform="matrix(0.1032 -0.9947 0.9947 0.1032 -63.2017 127.5252)" width="1.1" x="38.57" y="90.19"/>
  <path d="M27.26,75.17C13.39,75.32,3.26,85.68,2.85,99.35c-0.39,13.1,10,24.52,23.87,24.96 c14.82,0.47,25.75-11.01,25.43-24.69C51.84,86.32,41.46,75.01,27.26,75.17z M26.75,120.63c-11.89-0.38-20.8-10.16-20.46-21.4 c0.35-11.72,9.04-20.6,20.93-20.73c12.17-0.13,21.06,9.56,21.33,20.96C48.83,111.19,39.46,121.03,26.75,120.63z" fill="#484D50"/>
  <path d="M27.37,77.97C15.08,78.11,6.11,87.28,5.75,99.39c-0.35,11.6,8.86,21.71,21.14,22.1 c13.13,0.41,22.81-9.75,22.52-21.86C49.13,87.85,39.95,77.84,27.37,77.97z M26.81,119.67c-11.26-0.35-19.25-9.6-18.93-20.14 c0.33-11,8-19.05,19.27-19.17c11.53-0.13,20.36,8.97,20.21,19.68C47.19,110.69,38.84,120.05,26.81,119.67z" fill="#C9C9C9"/>
  <path d="M48.1,53.21c0,0,1.43-3.36,1.49-4.18c0.06-0.83-0.24-1.77-1.62-1.82c-1.38-0.06-4.23-0.16-4.23-0.16 l-2.8-5.6l-1.92-3.04c0,0-1.43-0.5-2.37,0.33s-1.16,1.76-0.5,3.03s3.96,8.26,4.73,8.48c0.77,0.22,3.96,0.06,4.18,0.17 c0.22,0.11-0.99,2.53-0.99,2.53L48.1,53.21z" fill="#C9C9C9"/>
  <path d="M90.15,55.08l-4.82,2.96l-3.5-2c0,0-1.76-1.36-3.04-1.83c-1.57-0.58-3.72-0.29-4.76-1.78 c-0.81-1.15,14.35-1.59,14.35-1.59L90.15,55.08z" fill="#B3B3B3"/>
  <path d="M76.55,48.89c-2.59,0.18-3.75,0.27-4.02,1.34c-0.29,1.15,1.95,2.78,2.92,3.25 c1.01,0.49,5.9-0.98,6.6-0.83c2.04,0.44,5.12,3.08,6.71,3.14c1.6,0.06,6.34-3.68,6.77-4.02c0.77-0.61,1.05-2.75-1.38-2.97 C91.74,48.59,78.59,48.75,76.55,48.89z" fill="#5E6268"/>
  <path d="M39.36,37.43c-1.41,0.08-1.14,2.89-0.67,3.67c0.66,1.1,1.6,1.98,3.25,2.04 c1.65,0.06,15.41-0.72,16.46-0.88c1.05-0.17,1.04-1.58,0.65-3.03c-0.25-0.91-1.09-2.51-2.13-2.59 C55.44,36.53,40.97,37.34,39.36,37.43z" fill="#5E6268"/>
  <path d="M101.26,97.73l-16.79-33.9l1.1-5.89L80.9,57.5c0,0-0.84,4.53-1.06,4.69 c-0.22,0.17-33.01-0.56-33.01-0.56l1.73-5.85l-4.81-0.59c-0.5,1.54-9.14,31.43-11.23,35.11c-2.09,3.69-4.35,7.08-4.35,7.08 s-0.89-0.46-1.91-0.1c-0.79,0.28-2.17,1.23-1.76,3.21c0.33,1.6,2.1,2.59,3.55,2.1c2.2-0.75,1.98-2.83,1.98-2.83s5.21-4.97,7.01-7.92 c1.78-2.93,5.7-17.05,5.8-17.04c0.38,0.04,25.89,28.15,26.73,28.42c0.66,0.22,30.66-2.04,30.66-2.04l1.71-1.32L101.26,97.73z M68.98,95.47c0,0-24.55-25.84-24.38-26.35c0.02-0.06,0.62-2.24,0.69-2.34c0.2-0.29,32.86,0.74,32.86,0.74L68.98,95.47z M72.86,98.72L82.38,69L97.3,97.62L72.86,98.72z" fill="#67A6AD"/>
  <path d="M27.02,98.22c-0.26,0.04-1.62,1.38-1.59,1.93c0.02,0.56,1.47,1.59,1.91,1.62 c0.43,0.02,1.62-1.5,1.62-1.86C28.95,99.55,27.35,98.17,27.02,98.22z" fill="#626168"/>
  <path d="M100.12,97.56c-0.28,0.16-1.2,1.46-1.23,1.85c-0.03,0.39,0.66,1.85,0.9,1.94 c0.24,0.09,1.61,0.12,1.97,0.03s1.2-1.4,1.2-1.76s-0.51-1.46-0.72-1.73S100.33,97.44,100.12,97.56z" fill="#626168"/>
  <path d="M79.79,55.94c-0.35,0.29-0.79,2.88,0.05,2.93s5.7,0.16,6.02,0s0.37-2.41,0.1-2.72 S80.1,55.67,79.79,55.94z" fill="#C9C9C9"/>
  <path d="M43.31,51.91c-0.58,0.21-1.78,3.82-1.52,4.24c0.26,0.42,7.64,1.26,8.01,1.2 c0.37-0.05,1.31-4.08,1.05-4.4S43.84,51.71,43.31,51.91z" fill="#B3B3B3"/>
  <path d="M59.92,106.6c0,0,6.78-6.64,7.56-7.36c0.64-0.59,1.28-1.42,2.43-1.28c1.15,0.14,1.49,0.88,1.49,0.88 l-1.26,3.11l-7.65,6.54l-0.95,3.98l-6.85-1.58c0,0-0.01-2.3,0-2.87c0.01-0.63-0.13-1.31,1.32-1.31S59.92,106.6,59.92,106.6z" fill="#B3B3B3"/>
  <path d="M61.36,108.1c-0.16,0.24-0.04,2.19-0.16,2.54c-0.12,0.36-1.9,0.2-2.83,0.24c-1.13,0.05-3.68,0-3.68,0 s0,1.62,0.04,1.98s0.32,0.93,1.54,0.93s5.22-0.16,5.87-0.2s1.34-0.59,1.33-1.7c-0.01-0.85,0.01-2.57,0.01-2.57s6.75-6.49,7.48-7.13 c0.73-0.65,1.19-1.01,1.13-1.98c-0.04-0.65-0.68-1.37-0.68-1.37L61.36,108.1z" fill="#858587"/>
</svg>

<svg viewBox="0 0 128 128" xmlns="http://www.w3.org/2000/svg">
  <defs/>
  <path d="M98.48,98.57 L72.34,92.89 L72.71,91.15 L98.95,96.63 Z" fill="#B9BABA"/>
  <path d="M72,108.31 L71.75,106.58 L99.9,100.79 L100.31,102.75 Z" fill="#B9BABA"/>
  <path d="M70.37,91.11 C65.09,90.86 61.22,96.28 61.66,100.65 C62.12,105.19 65.44,108.53 70.55,108.43 C75.37,108.34 78.7,105 78.79,99.91 C78.88,94.82 76.2,91.39 70.37,91.11 Z M72.87,103.9 C70.55,105.1 67.72,104.32 66.39,101.86 C65.19,99.64 66.57,96.27 68.98,95.47 C71.2,94.73 73.46,95.66 74.63,97.51 C75.92,99.54 75.37,102.6 72.87,103.9 Z" fill="#858587"/>
  <path d="M101.092,96.469 L104.889,79.519 L105.865,79.738 L102.068,96.688 L101.092,96.469 Z" fill="#B9BABA"/>
  <path d="M101.39,98.43 L113.14,83.67 L113.92,84.29 L104.74,95.84 L118.51,89.65 L118.92,90.56 Z" fill="#B9BABA"/>
  <path d="M119.78,106.84 L101.58,99.87 L120.66,96.77 L120.82,97.76 L105.4,100.26 L120.13,105.91 Z" fill="#B9BABA"/>
  <path d="M99.4,96 L96.36,79.57 L97.35,79.42 L100.39,95.85 Z" fill="#B9BABA"/>
  <path d="M86.127,85.228 L86.885,84.574 L97.945,97.392 L97.188,98.045 L86.127,85.228 Z" fill="#B9BABA"/>
  <path d="M85.18,113.54 L84.58,112.74 L84.88,113.14 L84.56,112.76 C84.95,112.41 94.06,103.13 97.54,99.59 L98.25,100.29 C94.41,104.2 85.44,113.34 85.18,113.54 Z" fill="#B9BABA"/>
  <path d="M98.374,102.021 L99.365,101.885 L101.902,120.433 L100.911,120.569 L98.374,102.021 Z" fill="#B9BABA"/>
  <path d="M92.8,119.43 L91.93,118.95 L101.12,102.11 L115.9,113.2 L115.3,114 L101.44,103.61 Z" fill="#B9BABA"/>
  <path d="M102.57,101.491 L103.502,101.128 L110.141,118.181 L109.209,118.544 L102.57,101.491 Z" fill="#B9BABA"/>
  <path d="M104.74,99.48 A4.08 3.96 0 1 1 96.58,99.48 A4.08 3.96 0 1 1 104.74,99.48 Z" fill="#C9C8C8"/>
  <path d="M100.17,75.1 C86.3,75.25 76.16,85.61 75.76,99.28 C75.37,112.38 85.76,123.8 99.63,124.24 C114.45,124.71 125.38,113.23 125.06,99.55 C124.74,86.25 114.37,74.94 100.17,75.1 Z M99.66,120.56 C87.77,120.18 78.86,110.4 79.2,99.16 C79.55,87.44 88.24,78.56 100.13,78.43 C112.3,78.3 121.19,87.99 121.46,99.39 C121.73,111.12 112.37,120.96 99.66,120.56 Z" fill="#484D50"/>
  <path d="M100.28,77.9 C87.99,78.04 79.01,87.21 78.65,99.31 C78.3,110.91 87.51,121.02 99.79,121.41 C112.92,121.82 122.6,111.66 122.31,99.55 C122.04,87.78 112.85,77.77 100.28,77.9 Z M99.71,119.6 C88.45,119.25 80.46,110 80.78,99.46 C81.11,88.46 88.78,80.41 100.05,80.29 C111.58,80.16 120.41,89.26 120.26,99.97 C120.1,110.62 111.75,119.98 99.71,119.6 Z" fill="#C9C9C9"/>
  <path d="M23.934,120.375 L28.237,100.637 L29.312,100.872 L25.009,120.609 L23.934,120.375 Z" fill="#B9BABA"/>
  <path d="M29.052,99.098 L46.528,92.387 L46.922,93.414 L29.447,100.125 L29.052,99.098 Z" fill="#B9BABA"/>
  <path d="M41.2,115.01 L28.02,98.58 L23.26,79.49 L24.33,79.23 L29.03,98.08 L42.06,114.32 Z" fill="#B9BABA"/>
  <path d="M27.01,98.57 L26.06,98.14 L32.3,79.81 L33.35,80.14 Z" fill="#B9BABA"/>
  <path d="M27.819,98.814 L42.305,85.228 L43.058,86.03 L28.572,99.616 L27.819,98.814 Z" fill="#B9BABA"/>
  <path d="M9.315,88.774 L9.858,87.817 L26.358,97.199 L25.814,98.155 L9.315,88.774 Z" fill="#B9BABA"/>
  <path d="M17.04,117.82 L16.06,117.34 L24.57,100.08 L6.55,95.87 L6.8,94.8 L26.17,99.32 Z" fill="#B9BABA"/>
  <path d="M6.83,105.25 L6.53,104.19 L25.96,98.66 L15.8,82.46 L16.73,81.87 L27.67,99.31 Z" fill="#B9BABA"/>
  <path d="M10.78,113.27 L10.18,112.34 L27.13,101.38 L46.53,106.21 L46.27,107.27 L27.33,102.56 Z" fill="#B9BABA"/>
  <path d="M25.751,102.025 L26.761,101.589 L34.447,119.391 L33.437,119.827 L25.751,102.025 Z" fill="#B9BABA"/>
  <path d="M30.491,98.467 L30.604,97.373 L47.753,99.152 L47.639,100.246 L30.491,98.467 Z" fill="#B9BABA"/>
  <path d="M27.26,75.17 C13.39,75.32 3.26,85.68 2.85,99.35 C2.46,112.45 12.85,123.87 26.72,124.31 C41.54,124.78 52.47,113.3 52.15,99.62 C51.84,86.32 41.46,75.01 27.26,75.17 Z M26.75,120.63 C14.86,120.25 5.95,110.47 6.29,99.23 C6.64,87.51 15.33,78.63 27.22,78.5 C39.39,78.37 48.28,88.06 48.55,99.46 C48.83,111.19 39.46,121.03 26.75,120.63 Z" fill="#484D50"/>
  <path d="M27.37,77.97 C15.08,78.11 6.11,87.28 5.75,99.39 C5.4,110.99 14.61,121.1 26.89,121.49 C40.02,121.9 49.7,111.74 49.41,99.63 C49.13,87.85 39.95,77.84 27.37,77.97 Z M26.81,119.67 C15.55,119.32 7.56,110.07 7.88,99.53 C8.21,88.53 15.88,80.48 27.15,80.36 C38.68,80.23 47.51,89.33 47.36,100.04 C47.19,110.69 38.84,120.05 26.81,119.67 Z" fill="#C9C9C9"/>
  <path d="M48.1,53.21 C48.1,53.21 49.53,49.85 49.59,49.03 C49.65,48.2 49.35,47.26 47.97,47.21 C46.59,47.15 43.74,47.05 43.74,47.05 L40.94,41.45 L39.02,38.41 C39.02,38.41 37.59,37.91 36.65,38.74 C35.71,39.57 35.49,40.5 36.15,41.77 C36.81,43.04 40.11,50.03 40.88,50.25 C41.65,50.47 44.84,50.31 45.06,50.42 C45.28,50.53 44.07,52.95 44.07,52.95 L48.1,53.21 Z" fill="#C9C9C9"/>
  <path d="M90.15,55.08 L85.33,58.04 L81.83,56.04 C81.83,56.04 80.07,54.68 78.79,54.21 C77.22,53.63 75.07,53.92 74.03,52.43 C73.22,51.28 88.38,50.84 88.38,50.84 L90.15,55.08 Z" fill="#B3B3B3"/>
  <path d="M76.55,48.89 C73.96,49.07 72.8,49.16 72.53,50.23 C72.24,51.38 74.48,53.01 75.45,53.48 C76.46,53.97 81.35,52.5 82.05,52.65 C84.09,53.09 87.17,55.73 88.76,55.79 C90.36,55.85 95.1,52.11 95.53,51.77 C96.3,51.16 96.58,49.02 94.15,48.8 C91.74,48.59 78.59,48.75 76.55,48.89 Z" fill="#5E6268"/>
  <path d="M39.36,37.43 C37.95,37.51 38.22,40.32 38.69,41.1 C39.35,42.2 40.29,43.08 41.94,43.14 C43.59,43.2 57.35,42.42 58.4,42.26 C59.45,42.09 59.44,40.68 59.05,39.23 C58.8,38.32 57.96,36.72 56.92,36.64 C55.44,36.53 40.97,37.34 39.36,37.43 Z" fill="#5E6268"/>
  <path d="M101.26,97.73 L84.47,63.83 L85.57,57.94 L80.9,57.5 C80.9,57.5 80.06,62.03 79.84,62.19 C79.62,62.36 46.83,61.63 46.83,61.63 L48.56,55.78 L43.75,55.19 C43.25,56.73 34.61,86.62 32.52,90.3 C30.43,93.99 28.17,97.38 28.17,97.38 C28.17,97.38 27.28,96.92 26.26,97.28 C25.47,97.56 24.09,98.51 24.5,100.49 C24.83,102.09 26.6,103.08 28.05,102.59 C30.25,101.84 30.03,99.76 30.03,99.76 C30.03,99.76 35.24,94.79 37.04,91.84 C38.82,88.91 42.74,74.79 42.84,74.8 C43.22,74.84 68.73,102.95 69.57,103.22 C70.23,103.44 100.23,101.18 100.23,101.18 L101.94,99.86 L101.26,97.73 Z M68.98,95.47 C68.98,95.47 44.43,69.63 44.6,69.12 C44.62,69.06 45.22,66.88 45.29,66.78 C45.49,66.49 78.15,67.52 78.15,67.52 L68.98,95.47 Z M72.86,98.72 L82.38,69 L97.3,97.62 L72.86,98.72 Z" fill="#67A6AD"/>
  <path d="M27.02,98.22 C26.76,98.26 25.4,99.6 25.43,100.15 C25.45,100.71 26.9,101.74 27.34,101.77 C27.77,101.79 28.96,100.27 28.96,99.91 C28.95,99.55 27.35,98.17 27.02,98.22 Z" fill="#626168"/>
  <path d="M100.12,97.56 C99.84,97.72 98.92,99.02 98.89,99.41 C98.86,99.8 99.55,101.26 99.79,101.35 C100.03,101.44 101.4,101.47 101.76,101.38 C102.12,101.29 102.96,99.98 102.96,99.62 C102.96,99.26 102.45,98.16 102.24,97.89 C102.03,97.62 100.33,97.44 100.12,97.56 Z" fill="#626168"/>
  <path d="M79.79,55.94 C79.44,56.23 79,58.82 79.84,58.87 C80.68,58.92 85.54,59.03 85.86,58.87 C86.18,58.71 86.23,56.46 85.96,56.15 C85.69,55.84 80.1,55.67 79.79,55.94 Z" fill="#C9C9C9"/>
  <path d="M43.31,51.91 C42.73,52.12 41.53,55.73 41.79,56.15 C42.05,56.57 49.43,57.41 49.8,57.35 C50.17,57.3 51.11,53.27 50.85,52.95 C50.59,52.63 43.84,51.71 43.31,51.91 Z" fill="#B3B3B3"/>
  <path d="M59.92,106.6 C59.92,106.6 66.7,99.96 67.48,99.24 C68.12,98.65 68.76,97.82 69.91,97.96 C71.06,98.1 71.4,98.84 71.4,98.84 L70.14,101.95 L62.49,108.49 L61.54,112.47 L54.69,110.89 C54.69,110.89 54.68,108.59 54.69,108.02 C54.7,107.39 54.56,106.71 56.01,106.71 C57.46,106.71 59.92,106.6 59.92,106.6 Z" fill="#B3B3B3"/>
  <path d="M61.36,108.1 C61.2,108.34 61.32,110.29 61.2,110.64 C61.08,111 59.3,110.84 58.37,110.88 C57.24,110.93 54.69,110.88 54.69,110.88 C54.69,110.88 54.69,112.5 54.73,112.86 C54.77,113.22 55.05,113.79 56.27,113.79 C57.49,113.79 61.49,113.63 62.14,113.59 C62.79,113.55 63.48,113 63.47,111.89 C63.46,111.04 63.48,109.32 63.48,109.32 C63.48,109.32 70.23,102.83 70.96,102.19 C71.69,101.54 72.15,101.18 72.09,100.21 C72.05,99.56 71.41,98.84 71.41,98.84 L61.36,108.1 Z" fill="#858587"/>
</svg>
